X: 16
T:Dandy Lusk
M:C
L:1/8
S:https://tunearch.org//wiki/Dandy_Lusk
K:G
GA |: "G"B2 (d2d2) (d2 | "C"e2)(d2 "G"d2)c2 | B2d2c2B2 | "D"~A2 GA "G"B2G2 :|
GA|: BGBG "D"A2 BA | "G"G2A2B3B | "C"c2cc "D"A2BA | "G"G2A2B3A | 
"G"BABG "D"A2BA | "G"G2A2B3B | "C"c2 cc A2 "D"BA | "G"[G,2G2]A2[G,3G3][A,A]:|

